icons/.local/share/icons/Papirus/32x32/apps/mx-datetime.svg

<svg width="32" height="32" version="1.1" xmlns="http://www.w3.org/2000/svg">
 <path d="M 2,10.9 V 27.599609 C 2,28.375209 2.624791,29 3.400391,29 H 28.599609 C 29.375209,29 30,28.375209 30,27.599609 V 10.9 Z" style="opacity:.2"/>
 <path d="M 2,9.9 V 26.599609 C 2,27.375209 2.624791,28 3.400391,28 H 28.599609 C 29.375209,28 30,27.375209 30,26.599609 V 9.9 Z" style="fill:#3040c0"/>
 <rect x="17" y="17" width="4" height="4" style="fill:#ffffff;opacity:.2"/>
 <path d="m30 11v-5.6c0-0.7756-0.6244-1.4-1.4-1.4h-25.2c-0.7756 0-1.4 0.6244-1.4 1.4v5.6z" style="opacity:.2"/>
 <path d="m30 10v-5.6c0-0.7756-0.6244-1.4-1.4-1.4h-25.2c-0.7756 0-1.4 0.6244-1.4 1.4v5.6z" style="fill:#c03040"/>
 <rect x="17" y="11" width="4" height="4" style="fill:#ffffff;opacity:.2"/>
 <rect x="23" y="11" width="4" height="4" style="fill:#ffffff;opacity:.2"/>
 <rect x="11" y="11" width="4" height="4" style="fill:#ffffff;opacity:.2"/>
 <rect x="5" y="11" width="4" height="4" style="fill:#ffffff;opacity:.2"/>
 <circle cx="7.5" cy="7.5" r="1.5" style="opacity:.2"/>
 <circle cx="7.5" cy="6.5" r="1.5" style="fill:#ffffff"/>
 <circle cx="24.5" cy="7.5" r="1.5" style="opacity:.2"/>
 <circle cx="24.5" cy="6.5" r="1.5" style="fill:#ffffff"/>
 <rect x="23" y="17" width="4" height="4" style="fill:#ffffff;opacity:.2"/>
 <rect x="11" y="17" width="4" height="4" style="fill:#ffffff;opacity:.2"/>
 <rect x="5" y="17" width="4" height="4" style="fill:#ffffff;opacity:.2"/>
 <rect x="17" y="23" width="4" height="4" style="fill:#ffffff;opacity:.2"/>
 <rect x="23" y="23" width="4" height="4" style="fill:#ffffff;opacity:.2"/>
 <rect x="11" y="23" width="4" height="4" style="fill:#ffffff;opacity:.2"/>
 <rect x="5" y="23" width="4" height="4" style="fill:#ffffff;opacity:.2"/>
 <path d="M 3.400391,3 C 2.624791,3 2,3.6247906 2,4.4003906 v 1 C 2,4.6247906 2.624791,4 3.400391,4 H 28.599609 C 29.375209,4 30,4.6247906 30,5.4003906 v -1 C 30,3.6247906 29.375209,3 28.599609,3 Z" style="fill:#ffffff;opacity:.2"/>
 <circle cx="24" cy="24" r="8" style="opacity:.2"/>
 <circle cx="24" cy="23" r="8" style="fill:#218543"/>
 <path d="m24 18c-2.761 0-5 2.239-5 5s2.239 5 5 5 5-2.239 5-5-2.239-5-5-5zm0 1c2.209 0 4 1.791 4 4s-1.791 4-4 4-4-1.791-4-4 1.791-4 4-4zm-1 1v4h4v-1h-3v-3z" style="fill:#ffffff"/>
</svg>

<svg xmlns="http://www.w3.org/2000/svg" width="32" height="32" version="1.1">
 <rect style="opacity:0.2" width="28" height="21" x="2" y="10" rx="1.4" ry="1.4"/>
 <rect style="fill:#e4e4e4" width="28" height="22" x="2" y="8" rx="1.4" ry="1.4"/>
 <path style="opacity:0.2" d="M 30,11 V 5.4 C 30,4.6244 29.376,4 28.6,4 H 3.4 C 2.6244,4 2,4.6244 2,5.4 V 11 Z"/>
 <path style="fill:#0f56d9" d="M 30,10 V 4.4 C 30,3.6244 29.376,3 28.6,3 H 3.4 C 2.6244,3 2,3.6244 2,4.4 V 10 Z"/>
 <rect style="opacity:0.2" width="4" height="4" x="17" y="12"/>
 <rect style="opacity:0.2" width="4" height="4" x="23" y="12"/>
 <rect style="opacity:0.2" width="4" height="4" x="11" y="12"/>
 <rect style="opacity:0.2" width="4" height="4" x="5" y="12"/>
 <circle style="opacity:0.2" cx="7.5" cy="7.5" r="1.5"/>
 <circle style="fill:#ffffff" cx="7.5" cy="6.5" r="1.5"/>
 <circle style="opacity:0.2" cx="24.5" cy="7.5" r="1.5"/>
 <circle style="fill:#ffffff" cx="24.5" cy="6.5" r="1.5"/>
 <rect style="opacity:0.2" width="4" height="4" x="23" y="18"/>
 <rect style="opacity:0.2" width="4" height="4" x="5" y="18"/>
 <rect style="opacity:0.2" width="4" height="4" x="17" y="24"/>
 <rect style="opacity:0.2" width="4" height="4" x="23" y="24"/>
 <rect style="opacity:0.2" width="4" height="4" x="11" y="24"/>
 <rect style="opacity:0.2" width="4" height="4" x="5" y="24"/>
 <path style="opacity:0.1;fill:#ffffff" d="M 3.4004,3 C 2.6248,3 2,3.6248 2,4.4004 V 5.4004 C 2,4.6248 2.6248,4 3.4004,4 H 28.6 C 29.375,4 30,4.6248 30,5.4004 V 4.4004 C 30,3.6248 29.375,3 28.6,3 Z"/>
 <circle style="opacity:0.2" cx="16" cy="21" r="8"/>
 <circle style="fill:#ff3800" cx="16" cy="20" r="8"/>
 <path style="fill:#ffffff" d="m16 14.999966c-2.761424 0-5 2.238516-5 5.000036s2.238576 5.000036 5 5.000036c2.761423 0 4.999999-2.238516 4.999999-5.000036s-2.238576-5.000036-4.999999-5.000036zm0 1.000008c2.209138 0 3.999999 1.791012 3.999999 4.000028s-1.790861 4.000028-3.999999 4.000028-4-1.791012-4-4.000028 1.790862-4.000028 4-4.000028zm-0.5 1.000007v3.500025h3.499999v-1.000008h-2.499999v-2.500017z"/>
</svg>
